X:19
C:Page 09
T:Del Caros Hornpipe. MBe.19
S:Matthew Betham MS, Towcett Cumbria, 1815
O:England;Cumbria;Towcett
Z:VMP – Hugh Taylor, 2012
T:Madame Del Caro’s Hornpipe, aka. MBe.19
M:2/4
L:1/8
Q:1/2=80
C:John Field
R:.Hornpipe
K:G
G>Bd>g|f>ed>e|d>cB>A|B>c d2|
G>Bd>g|f>ed>c|B>AG>F|G2 G2:|
|:G>Bd>g|”^NB”(e//f//g3/2) (e//f//g3/2)|D>FA>c|(B//c//d3/2) (B//c//d3/2)|
G>Bd>g|(e//f//g3/2) (e//f//g3/2)|B>AG>F|G2G2:|

